Papirus/16x16/apps/pcbcalculator.svg

<svg xmlns="http://www.w3.org/2000/svg" width="16" height="16" version="1">
 <path fill="#3f3f3f" d="m7 8h9v7c0 1-1 1-1 1h-8z"/>
 <path fill="#71c454" d="m0 7v8.25c0 0.416 0.3345 0.75 0.75 0.75h7.25v-9z"/>
 <path fill="#86d478" d="m0.75 0c-0.4155 0-0.75 0.3345-0.75 0.75v7.25h9v-8z"/>
 <path fill="#36862c" d="m15.25 0c0.416 0 0.75 0.3345 0.75 0.75v7.25h-8v-8z"/>
 <path fill="#fff" d="m10.006 11v0.99851h3.9941v-0.999zm0 1.997v0.99852h3.9941v-0.99852z"/>
 <path fill="#3f3f3f" fill-rule="evenodd" d="m2.3535 9.6465-0.707 0.7075 1.6465 1.646-1.6465 1.646 0.707 0.708 1.6465-1.647 1.6465 1.647 0.707-0.708-1.6465-1.646 1.6465-1.646-0.707-0.7075-1.6465 1.6465-1.6465-1.6465z"/>
 <path fill="#3f3f3f" d="m10.003 4v0.99851h3.9941v-0.99851z"/>
 <path fill="#3f3f3f" d="m4.002 2.002v2h-1.998v0.99805h1.998v2h0.998v-2h2v-0.998h-2v-2h-0.99805z"/>
</svg>

<svg xmlns="http://www.w3.org/2000/svg" width="16" height="16" version="1">
 <path style="fill:#3f3f3f" d="M 7,8 H 16 V 15 C 16,16 15,16 15,16 H 7 Z"/>
 <path style="fill:#71c454" d="M 0,7 V 15.25 C 0,15.666 0.3345,16 0.75,16 H 8 V 7 Z"/>
 <path style="fill:#86d478" d="M 0.75,0 C 0.3345,0 0,0.3345 0,0.75 V 8 H 9 V 0 Z"/>
 <path style="fill:#36862c" d="M 15.25,0 C 15.666,0 16,0.3345 16,0.75 V 8 H 8 V 0 Z"/>
 <path style="fill:#ffffff" d="M 10,11 V 12 H 14 V 11 Z M 10,13 V 14 H 14 V 13 Z"/>
 <path style="fill:#3f3f3f" d="M 10,4 V 5 H 14 V 4 Z"/>
 <path style="fill:#3f3f3f" d="M 4,2 V 4 H 2 V 5 H 4 V 7 H 5 V 5 H 7 V 4 H 5 V 2 Z"/>
 <path style="fill:none;stroke:#3f3f3f;stroke-width:1px" d="M 2,10 6,14 M 6,10 2,14"/>
</svg>
